X: 38661
T: Straddle The Donkey
R: jig
M: 6/8
K: Adorian
|:G|EAB cAd|BGG G2 E|ABA agf|gee e2 f|
gba gfe|edB c2 d|ege edB|cAA A2:|
|:g|aeg a2 c'|bag g2 b|aba agf|gee e2 f|
gba gfe|edB c2 d|ege edB|cAA A2:|

